X: 49
T:Banished to America
M:4/4
L:1/8
S:Rice-Walsh manuscript
R:Air
K:D
"Moderato"(3ABc|d2 de dcAF|G2 GF GBAG|F2 GFD2 D2|D4-D2 DE|
F2 FE FGAF|G2 GF G2 Ac|d2 dc ABce|d4-d2||
DE|F2 FE FGAF|G2 GF G2 Ac|d2 dc ABce|d4-d2 fe|
d2 de dcAF|G2 GF GBAG|F2 GF D2 D2|D4-D2||

